assets/icons/icon-youtube.svg

<svg width="21" height="20" viewBox="0 0 21 20" fill="none" xmlns="http://www.w3.org/2000/svg">
<path d="M10.333 0C4.81101 0 0.333008 4.478 0.333008 10C0.333008 15.523 4.81101 20 10.333 20C15.856 20 20.333 15.523 20.333 10C20.333 4.478 15.856 0 10.333 0V0ZM14.034 14.077C12.282 14.197 8.38101 14.197 6.63201 14.077C4.73501 13.947 4.51401 13.018 4.50001 10C4.51401 6.976 4.73701 6.053 6.63201 5.923C8.38101 5.803 12.283 5.803 14.034 5.923C15.932 6.053 16.152 6.982 16.167 10C16.152 13.024 15.929 13.947 14.034 14.077V14.077ZM8.66701 8.048L12.764 9.997L8.66701 11.952V8.048V8.048Z" fill="black"/>
</svg>

<svg xmlns="http://www.w3.org/2000/svg" width="21" height="20"><path fill="#FFF" d="M10.333 0c-5.522 0-10 4.478-10 10 0 5.523 4.478 10 10 10 5.523 0 10-4.477 10-10 0-5.522-4.477-10-10-10zm3.701 14.077c-1.752.12-5.653.12-7.402 0C4.735 13.947 4.514 13.018 4.5 10c.014-3.024.237-3.947 2.132-4.077 1.749-.12 5.651-.12 7.402 0 1.898.13 2.118 1.059 2.133 4.077-.015 3.024-.238 3.947-2.133 4.077zM8.667 8.048l4.097 1.949-4.097 1.955V8.048z"/></svg>
